X:1
T:Faith Brings the Victory
T:Melvin J. Hill, 1910
T:Faith Brings the Victory
T:Public Domain
T:Public Domain
T:Public Domain
C:Melvin J. Hill, 1910
Z:Public Domain
%%score ( 1 2 ) ( 3 4 )
L:1/8
M:4/4
K:C
V:1 treble 
V:2 treble 
V:3 bass 
V:4 bass 
V:1
 [CE]>[DF] | [EG]2 [CE]>[CD] C2 [EA]2 | [EA]2 [CE]4 ([EA]>[EB]) | [Ec]2 (B>A) [EG]2 [EA]>[EA] | %4
w: 1.~Do you|see in the dist- ance|der, That line *|drawn up * in ar- ray?|
w: 2.~They are|march- ing a- way to|quest That~shall ne- *|ver- know * a de- feat,|
 [DF]6 [B,D]>[B,E] | [B,F]2 [B,E]>[B,D] [B,E]2 [B,F]2 | [EG]2 [Fc]4 ([Ec][Ec]) | %7
w: the host of|the Loy- al Leag- uers,|Come forth to *|
w: the Christ hath|as- sured all vic- t’ry|Who~are faith- ful *|
 [^FB]2 [FA]>[FB] [Fc]2 [FA]2 | ([Gd]4 [DG]2) (A>B) | [Ec]2 [EB]>[EA] [EG]2 [EA]2 | %10
w: the con- quest day. They|fol- * low *|blood- stained ban- ner, And~the|
w: and scorn re- treat. Then|join * this *|vanc- ing ar- my, And|
 [EA]2 [EG]4 ([EA]>[EB]) | [Ec]2 [EB]>[Ec] [Ee]2 [EG]2 | (F2 ^C2 D2) [FG]>[FA] | %13
w: path that their *|Mas- ter trod, For their|sign * * is the|
w: look to the *|throne a- bove, Lift the|form * * of thy|
 [EG]2 [EG]>[EG] [FA]2 [FB]2 | [Ec]4 [Ee]2 [Ad]>[Ad] | [Gc]2 [Gc]>[Gd] [Gc]2 [GB]2 | [Ec]6 z2 || %17
w: of Cal- v’ry, And their|sword is the Word|of God. * * *||
w: en bro- ther, A- nd|point to the God|of love. Vic- to- ry,|we’ll|
"^Refrain" [ce]>[ce] [ce]3 [ce][ce][ce] | [Ge]>[Ae] [Ge]3 [Ge][Ae][Be] | %19
w: ||
w: sing of vic- to- ry, For|Christ hath prom- ised us the|
 [de][ce][Be][ce] [Ge]2 [Ae]2 | [Bf]6 z2 | [df]>[df] [df]3 [Gf][Af][Bf] | [ce]>[ce] [ce]4 [FAdf]2 | %23
w: ||||
w: vic- to- ry; Vic- to- ry,|we’ll|sing of vic- to- ry, Faith|brings the vic- to-|
 [Gce]3 [Gc] [Gc]2 [FGBd]2 | [Gc]6 |] %25
w: ||
w: ry. * * *||
V:2
 x2 | x4 C2 x2 | x8 | x2 E2 x4 | x8 | x8 | x8 | x8 | x6 F2 | x8 | x8 | x8 | A6 x2 | x8 | x8 | x8 | %16
w: |yon-||’Tis|||||the||||cross||||
w: |con-||For|||||ad-||||fall-||||
 x8 || x8 | x8 | x8 | x8 | x8 | x8 | x8 | x6 |] %25
w: |||||||||
w: |||||||||
V:3
 [C,G,]>[C,G,] | [C,C]2 [C,G,]>[C,F,] [C,E,]2 [C,C]2 | [C,C]2 [C,G,]4 [C,C]->[C,C] | %3
 [C,G,]2 [C,G,]2 [B,,C]2 [B,,C]>[B,,C] | [D,B,]6 [G,,G,]>[G,,G,] | %5
 [G,,G,]2 [G,,G,]>[G,,G,] [G,,G,]2 [G,,G,]2 | [C,C]2 [C,C]4 ([C,C][C,C]) | %7
 [D,C]2 [D,C]>[D,C] [D,C]2 [D,C]2 | [G,B,]6 (C>D) | [C,C]2 [C,G,]>[C,G,] [C,C]2 [C,C]2 | %10
 [C,C]2 [C,C]4 ([C,C]>[C,C]) | [C,G,]2 [C,G,]>[C,G,] [C,C]2 [E,C]2 | %12
 ([F,C]2 [E,A,]2 [D,F,]2) [D,B,]>[D,B,] | [E,C]2 [E,C]>[E,C] [F,C]2 [D,D]2 | %14
 [C,C]4 [C,C]2 [F,DF]->[F,DF] | [G,E]2 [G,E]>[G,F] [G,E]2 [G,D]2 | [C,C]6 z2 || %17
 [C,,C,G,]2 [C,G,CE]2 [C,G,][C,G,]C,[C,E] | [C,,C,C]2 [C,G,CE]2 [C,C][C,C]C,[C,G,] | %19
 [C,G,][C,G,][C,G,][C,G,] [C,,C,C]2 [C,G,CE]2 | %20
 (D,,>[G,,G,] [B,,B,][A,,A,] [G,,G,][F,,F,][D,,D,][G,,G,]) | [D,,D,G,D]2 [G,B,D]2 D[G,D] z [G,D] | %22
 [C,,C,C]2 [C,G,CE]2 [C,,C,D]2 [F,,F,D]2 | [G,C]3 [G,CE] [G,CE]2 [G,,B,F]2 | [C,CE]6 |] %25
V:4
 x2 | x8 | x8 | x8 | x8 | x8 | x8 | x8 | x6 G,2 | x8 | x8 | x8 | x8 | x8 | x8 | x8 | x8 || %17
 x3 C,,2 [G,CE]2 x | x3 E,,2 [G,CE]2 x | C,,2 [CE]2 x4 | [D,D]4 x4 | x4 [G,,G,]2 [G,B,D]2 | x8 | %23
 x8 | x6 |] %25

